symbols/web/draft/materialsymbolsoutlined/draft_wght600gradN25fill1_40px.svg

<svg xmlns="http://www.w3.org/2000/svg" height="40" width="40"><path d="M9.792 37.042q-1.459 0-2.5-1.042-1.042-1.042-1.042-2.5v-27q0-1.5 1.042-2.542 1.041-1.041 2.5-1.041h14.416l9.542 9.541V33.5q0 1.458-1.042 2.5-1.041 1.042-2.5 1.042ZM22.375 14.25h7.833L22.375 6.5Z"/></svg>

<svg xmlns="http://www.w3.org/2000/svg" height="40" width="40"><path d="M9.792 37.042Q8.333 37.042 7.292 36Q6.25 34.958 6.25 33.5V6.5Q6.25 5 7.292 3.958Q8.333 2.917 9.792 2.917H24.208L33.75 12.458V33.5Q33.75 34.958 32.708 36Q31.667 37.042 30.208 37.042ZM22.375 14.25H30.125L22.375 6.5Z"/></svg>
